;FLAVOR:Marlin
;TIME:3586
;Filament used: 3.51214m
;Layer height: 0.2
;MINX:67.69
;MINY:75.94
;MINZ:0.2
;MAXX:142.31
;MAXY:134.06
;MAXZ:16.4
;TARGET_MACHINE.NAME:Anycubic i3 Mega
;Generated with Cura_SteamEngine 5.9.0
M140 S60
M105
M190 S60
M104 S200
M105
M109 S200
M82 ;absolute extrusion mode
G21 ;metric values
G90 ;absolute positioning
M82 ;set extruder to absolute mode
M107 ;start with the fan off
G28 X0 Y0 ;move X/Y to min endstops
G28 Z0 ;move Z to min endstops
G1 Z15.0 F100 ;move the platform down 15mm
G92 E0 ;zero the extruded length
G1 F200 E3 ;extrude 3mm of feed stock
G92 E0 ;zero the extruded length again
G1 F100
G0 Y20 F100
M117 Printing...
G5
G92 E0
G92 E0
G1 F2400 E-6
;LAYER_COUNT:82
;LAYER:0
M107
M204 S3000
M205 X10 Y10
G1 F600 Z0.275
G0 F3000 X77.692 Y134.059 Z0.275
M204 S1800
M205 X8 Y8
;TYPE:SKIRT
G1 F600 Z0.2
G1 F2400 E0
G1 X76.883 Y134.046 E0.03768
G1 X75.837 Y133.954 E0.08657
G1 X74.949 Y133.76 E0.12889
G1 X73.789 Y133.406 E0.18537
G1 X72.88 Y132.997 E0.23178
G1 X71.614 Y132.219 E0.30097
G1 X70.66 Y131.421 E0.35889
G1 X69.931 Y130.638 E0.4087
G1 X69.278 Y129.762 E0.45958
G1 X68.843 Y129.028 E0.49931
G1 X68.482 Y128.294 E0.5374
G1 X68.103 Y127.258 E0.58876
G1 X67.899 Y126.46 E0.62712
G1 X67.768 Y125.652 E0.66523
G1 X67.7 Y124.78 E0.70596
G1 X67.69 Y124.045 E0.74019
G1 X67.691 Y109.939 E1.39702
G1 X67.702 Y109.165 E1.43307
G1 X67.784 Y106.326 E1.56532
G1 X67.784 Y103.708 E1.68722
G1 X67.7 Y100.779 E1.82367
G1 X67.69 Y99.998 E1.86003
G1 X67.691 Y85.928 E2.51519
G1 X67.704 Y85.165 E2.55073
G1 X67.76 Y84.375 E2.5876
G1 X68.025 Y83.079 E2.6492
G1 X68.218 Y82.435 E2.68051
G1 X68.582 Y81.482 E2.72801
G1 X69.054 Y80.62 E2.77377
G1 X69.56 Y79.852 E2.81659
G1 X70.238 Y79.012 E2.86686
G1 X70.93 Y78.326 E2.91223
G1 X71.692 Y77.726 E2.95739
G1 X72.501 Y77.218 E3.00187
G1 X73.254 Y76.822 E3.04149
G1 X74.404 Y76.385 E3.09878
G1 X75.299 Y76.143 E3.14195
G1 X76.632 Y75.955 E3.20463
G1 X77.681 Y75.94 E3.25348
G1 X132.233 Y75.94 E5.79365
G1 X132.988 Y75.951 E5.82881
G1 X134.081 Y76.04 E5.87987
G1 X135.144 Y76.252 E5.93035
G1 X136.052 Y76.535 E5.97463
G1 X137.417 Y77.16 E6.04454
G1 X138.458 Y77.836 E6.10234
G1 X139.341 Y78.586 E6.15628
G1 X140.009 Y79.289 E6.20144
G1 X140.693 Y80.195 E6.2543
G1 X141.111 Y80.879 E6.29162
G1 X141.633 Y81.985 E6.34857
G1 X141.884 Y82.717 E6.38461
G1 X142.147 Y83.747 E6.43411
G1 X142.284 Y84.725 E6.48009
G1 X142.31 Y85.943 E6.53682
G1 X142.309 Y100.026 E7.19258
G1 X142.298 Y100.854 E7.23114
G1 X142.217 Y103.676 E7.3626
G1 X142.217 Y106.304 E7.48497
G1 X142.303 Y109.3 E7.62453
G1 X142.31 Y109.869 E7.65103
G1 X142.31 Y124.021 E8.31001
G1 X142.3 Y124.758 E8.34433
G1 X142.23 Y125.639 E8.38548
G1 X142.038 Y126.729 E8.43702
G1 X141.725 Y127.767 E8.4875
G1 X141.299 Y128.763 E8.53794
G1 X140.699 Y129.799 E8.59369
G1 X140.134 Y130.559 E8.63778
G1 X139.58 Y131.177 E8.67643
G1 X138.867 Y131.838 E8.7217
G1 X138.106 Y132.41 E8.76603
G1 X137.269 Y132.91 E8.81143
G1 X136.45 Y133.308 E8.85383
G1 X135.582 Y133.624 E8.89685
G1 X134.456 Y133.906 E8.9509
G1 X133.561 Y134.03 E8.99297
G1 X132.295 Y134.06 E9.05194
G1 X77.692 Y134.059 E11.59448
M204 S3000
M205 X10 Y10
G0 F3000 X77.7 Y133.499
M204 S1800
M205 X8 Y8
G1 F2400 X76.929 Y133.488 E11.63038
G1 X75.956 Y133.407 E11.67585
G1 X75.111 Y133.224 E11.71611
G1 X74.019 Y132.895 E11.76921
G1 X73.11 Y132.486 E11.81563
G1 X71.972 Y131.788 E11.87779
G1 X71.07 Y131.039 E11.93238
G1 X70.341 Y130.256 E11.9822
G1 X69.728 Y129.429 E12.03013
G1 X69.346 Y128.781 E12.06516
G1 X68.985 Y128.047 E12.10325
G1 X68.646 Y127.119 E12.14925
G1 X68.442 Y126.321 E12.18761
G1 X68.321 Y125.564 E12.2233
G1 X68.26 Y124.772 E12.26029
G1 X68.25 Y124.045 E12.29415
G1 X68.251 Y109.947 E12.95061
G1 X68.262 Y109.181 E12.98628
G1 X68.344 Y106.342 E13.11853
G1 X68.344 Y103.708 E13.24118
G1 X68.26 Y100.772 E13.37795
G1 X68.25 Y99.998 E13.41399
G1 X68.251 Y85.937 E14.06873
G1 X68.263 Y85.205 E14.10282
G1 X68.319 Y84.415 E14.1397
G1 X68.562 Y83.238 E14.19566
G1 X68.742 Y82.632 E14.2251
G1 X69.074 Y81.75 E14.26898
G1 X69.522 Y80.928 E14.31257
G1 X70.028 Y80.16 E14.3554
G1 X70.634 Y79.408 E14.40037
G1 X71.277 Y78.765 E14.44271
G1 X71.991 Y78.2 E14.48511
G1 X72.762 Y77.714 E14.52755
G1 X73.515 Y77.318 E14.56716
G1 X74.55 Y76.926 E14.6187
G1 X75.445 Y76.684 E14.66187
G1 X76.64 Y76.515 E14.71807
G1 X77.689 Y76.5 E14.76692
G1 X132.225 Y76.5 E17.30634
G1 X132.98 Y76.511 E17.3415
G1 X133.973 Y76.59 E17.38789
G1 X134.977 Y76.787 E17.43553
G1 X135.885 Y77.07 E17.47981
G1 X137.114 Y77.631 E17.54272
G1 X138.095 Y78.263 E17.59706
G1 X138.978 Y79.013 E17.65101
G1 X139.563 Y79.628 E17.69053
G1 X140.215 Y80.487 E17.74074
G1 X140.633 Y81.171 E17.77807
G1 X141.103 Y82.167 E17.82935
G1 X141.354 Y82.899 E17.86539
G1 X141.592 Y83.825 E17.90991
G1 X141.729 Y84.803 E17.95589
G1 X141.75 Y85.943 E18.00898
G1 X141.749 Y100.018 E18.66437
G1 X141.738 Y100.838 E18.70256
G1 X141.657 Y103.66 E18.83402
G1 X141.657 Y106.304 E18.95713
G1 X141.743 Y109.307 E19.09702
G1 X141.75 Y109.876 E19.12352
G1 X141.75 Y124.013 E19.7818
G1 X141.74 Y124.75 E19.81612
G1 X141.678 Y125.544 E19.8532
G1 X141.501 Y126.569 E19.90164
G1 X141.21 Y127.547 E19.94915
G1 X140.784 Y128.543 E19.99959
G1 X140.249 Y129.466 E20.04927
G1 X139.716 Y130.186 E20.09098
G1 X139.199 Y130.766 E20.12716
G1 X138.486 Y131.427 E20.17243
G1 X137.771 Y131.961 E20.21399
G1 X137.024 Y132.406 E20.25448
G1 X136.205 Y132.804 E20.29688
G1 X135.392 Y133.097 E20.33712
G1 X134.379 Y133.351 E20.38575
G1 X133.484 Y133.475 E20.42782
G1 X132.295 Y133.5 E20.4832
G1 X77.7 Y133.499 E23.02537
M204 S3000
M205 X10 Y10
G0 F3000 X77.708 Y132.939
M204 S1800
M205 X8 Y8
G1 F2400 X76.937 Y132.928 E23.06127
G1 X76.073 Y132.859 E23.10163
G1 X75.27 Y132.687 E23.13987
G1 X74.249 Y132.384 E23.18946
G1 X73.34 Y131.975 E23.23588
G1 X72.33 Y131.357 E23.29101
G1 X71.428 Y130.608 E23.34561
G1 X70.79 Y129.922 E23.38923
G1 X70.21 Y129.143 E23.43445
G1 X69.849 Y128.534 E23.46742
G1 X69.488 Y127.8 E23.50551
G1 X69.189 Y126.98 E23.54615
G1 X68.985 Y126.182 E23.5845
G1 X68.874 Y125.477 E23.61773
G1 X68.82 Y124.764 E23.65103
G1 X68.81 Y124.045 E23.68451
G1 X68.811 Y109.955 E24.3406
G1 X68.822 Y109.197 E24.3759
G1 X68.904 Y106.358 E24.50815
G1 X68.904 Y103.708 E24.63155
G1 X68.82 Y100.765 E24.76864
G1 X68.81 Y99.998 E24.80436
G1 X68.811 Y85.946 E25.45868
G1 X68.822 Y85.245 E25.49132
G1 X68.878 Y84.455 E25.5282
G1 X69.099 Y83.396 E25.57858
G1 X69.267 Y82.826 E25.60625
G1 X69.566 Y82.017 E25.64641
G1 X69.99 Y81.236 E25.68779
G1 X70.496 Y80.468 E25.73061
G1 X71.032 Y79.802 E25.77042
G1 X71.626 Y79.203 E25.8097
G1 X72.29 Y78.674 E25.84923
G1 X73.061 Y78.188 E25.89167
G1 X73.775 Y77.814 E25.9292
G1 X74.696 Y77.467 E25.97503
G1 X75.591 Y77.225 E26.0182
G1 X76.648 Y77.075 E26.06791
G1 X77.697 Y77.06 E26.11676
G1 X132.217 Y77.06 E28.65544
G1 X132.972 Y77.071 E28.6906
G1 X133.867 Y77.14 E28.7324
G1 X134.81 Y77.322 E28.77712
G1 X135.718 Y77.605 E28.82141
G1 X136.811 Y78.102 E28.87732
G1 X137.792 Y78.734 E28.93166
G1 X138.572 Y79.399 E28.97938
G1 X139.157 Y80.014 E29.01891
G1 X139.737 Y80.779 E29.06361
G1 X140.155 Y81.463 E29.10094
G1 X140.574 Y82.349 E29.14657
G1 X140.812 Y83.04 E29.1806
G1 X141.037 Y83.903 E29.22213
G1 X141.174 Y84.881 E29.26812
G1 X141.19 Y85.943 E29.31757
G1 X141.189 Y100.01 E29.97259
G1 X141.178 Y100.822 E30.01041
G1 X141.097 Y103.644 E30.14186
G1 X141.097 Y106.304 E30.26572
G1 X141.183 Y109.314 E30.40594
G1 X141.19 Y109.883 E30.43244
G1 X141.19 Y124.005 E31.09002
G1 X141.18 Y124.742 E31.12434
G1 X141.126 Y125.451 E31.15745
G1 X140.964 Y126.411 E31.20278
G1 X140.694 Y127.329 E31.24734
G1 X140.298 Y128.264 E31.29462
G1 X139.798 Y129.134 E31.34134
G1 X139.298 Y129.813 E31.38061
G1 X138.781 Y130.393 E31.41679
G1 X138.151 Y130.978 E31.45682
G1 X137.436 Y131.512 E31.49837
G1 X136.739 Y131.924 E31.53607
G1 X136.015 Y132.277 E31.57358
G1 X135.202 Y132.57 E31.61382
G1 X134.302 Y132.796 E31.65703
G1 X133.407 Y132.92 E31.6991
G1 X132.295 Y132.94 E31.75089
G1 X77.708 Y132.939 E34.29269
M204 S3000
M205 X10 Y10
G0 F3000 X77.716 Y132.379
M204 S1800
M205 X8 Y8
G1 F2400 X76.945 Y132.368 E34.32859
G1 X76.19 Y132.311 E34.36385
G1 X75.387 Y132.139 E34.40209
G1 X74.479 Y131.873 E34.44615
G1 X73.57 Y131.464 E34.49256
G1 X72.688 Y130.926 E34.54067
G1 X71.786 Y130.177 E34.59526
G1 X71.202 Y129.543 E34.6354
G1 X70.692 Y128.857 E34.6752
G1 X70.331 Y128.248 E34.70817
G1 X69.991 Y127.554 E34.74415
G1 X69.731 Y126.839 E34.77958
G1 X69.538 Y126.095 E34.81537
G1 X69.427 Y125.39 E34.8486
G1 X69.38 Y124.756 E34.8782
G1 X69.37 Y124.045 E34.91132
G1 X69.371 Y109.963 E35.56703
G1 X69.382 Y109.213 E35.60196
G1 X69.464 Y106.374 E35.73421
G1 X69.464 Y103.708 E35.85835
G1 X69.38 Y100.758 E35.99577
G1 X69.37 Y99.998 E36.03116
G1 X69.371 Y85.954 E36.68511
G1 X69.381 Y85.285 E36.71626
G1 X69.437 Y84.495 E36.75314
G1 X69.636 Y83.554 E36.79793
G1 X69.794 Y83.016 E36.82404
G1 X70.059 Y82.283 E36.86033
G1 X70.458 Y81.544 E36.89944
G1 X70.964 Y80.776 E36.94226
G1 X71.432 Y80.194 E36.97704
G1 X71.977 Y79.639 E37.01326
G1 X72.589 Y79.147 E37.04982
G1 X73.321 Y78.684 E37.09015
G1 X74.035 Y78.31 E37.12769
G1 X74.842 Y78.008 E37.16781
G1 X75.737 Y77.766 E37.21098
G1 X76.656 Y77.635 E37.2542
G1 X77.705 Y77.62 E37.30305
G1 X132.209 Y77.62 E39.84099
G1 X132.964 Y77.631 E39.87615
G1 X133.763 Y77.69 E39.91346
G1 X134.643 Y77.857 E39.95516
G1 X135.551 Y78.14 E39.99945
G1 X136.508 Y78.573 E40.04836
G1 X137.489 Y79.205 E40.1027
G1 X138.166 Y79.785 E40.14421
G1 X138.751 Y80.4 E40.18373
G1 X139.259 Y81.071 E40.22292
G1 X139.677 Y81.755 E40.26025
G1 X140.045 Y82.533 E40.30032
G1 X140.271 Y83.184 E40.33241
G1 X140.483 Y83.983 E40.3709
G1 X140.614 Y84.889 E40.41353
G1 X140.63 Y85.943 E40.46261
G1 X140.629 Y100.002 E41.11726
G1 X140.618 Y100.806 E41.1547
G1 X140.537 Y103.628 E41.28616
G1 X140.537 Y106.304 E41.41076
G1 X140.623 Y109.321 E41.55131
G1 X140.63 Y109.89 E41.5778
G1 X140.63 Y123.997 E42.23468
G1 X140.62 Y124.734 E42.269
G1 X140.574 Y125.36 E42.29823
G1 X140.426 Y126.255 E42.34047
G1 X140.178 Y127.112 E42.38202
G1 X139.811 Y127.987 E42.4262
G1 X139.346 Y128.803 E42.46993
G1 X138.88 Y129.44 E42.50668
G1 X138.363 Y130.02 E42.54286
G1 X137.816 Y130.529 E42.57765
G1 X137.101 Y131.063 E42.61921
G1 X136.492 Y131.422 E42.65213
G1 X135.824 Y131.751 E42.6868
G1 X135.064 Y132.027 E42.72445
G1 X134.225 Y132.241 E42.76477
G1 X133.33 Y132.365 E42.80684
G1 X132.295 Y132.38 E42.85504
G1 X77.716 Y132.379 E45.39647
M204 S3000
M205 X10 Y10
G1 F2400 E39.39647
;MESH:bottom.stl
G0 F3000 X74.232 Y125.75
G0 X73.986 Y124.532
G0 X73.986 Y109.286
G0 X74.232 Y108.25
G0 X77.716 Y103.765
G0 X77.716 Y102.67
G0 X133.094 Y101.639
M204 S1800
M205 X8 Y8
;TYPE:WALL-INNER
G1 F2400 E45.39647
G1 F1500 X133.365 Y101.528 E45.4101
G1 X133.591 Y101.342 E45.42373
G1 X133.851 Y100.954 E45.44548
G1 X133.948 Y100.554 E45.46465
G1 X133.948 Y85.443 E46.16828
G1 X133.892 Y85.16 E46.18171
G1 X133.676 Y84.748 E46.20337
G1 X133.499 Y84.571 E46.21503
G1 X133.096 Y84.358 E46.23625
G1 X132.786 Y84.3 E46.25094
G1 X77.318 Y84.3 E48.83376
G1 X77.013 Y84.329 E48.84803
G1 X76.589 Y84.506 E48.86942
G1 X76.404 Y84.658 E48.88057
G1 X76.145 Y85.042 E48.90214
G1 X76.049 Y85.442 E48.92129
G1 X76.048 Y100.424 E49.61892
G1 X76.08 Y100.732 E49.63334
G1 X76.252 Y101.154 E49.65455
G1 X76.404 Y101.338 E49.66567
G1 X76.798 Y101.604 E49.6878
G1 X77.191 Y101.7 E49.70664
G1 X132.782 Y101.7 E52.29519
G1 X133.094 Y101.639 E52.30999
M204 S3000
M205 X10 Y10
G0 F3000 X133.254 Y102.179
M204 S1800
M205 X8 Y8
G1 F1500 X133.656 Y102.014 E52.33023
G1 X133.99 Y101.739 E52.35037
G1 X134.21 Y101.471 E52.36652
G1 X134.371 Y101.169 E52.38246
G1 X134.508 Y100.594 E52.40998
G1 X134.508 Y85.389 E53.11799
G1 X134.431 Y84.997 E53.13659
G1 X134.292 Y84.663 E53.15344
G1 X134.111 Y84.391 E53.16865
G1 X133.856 Y84.137 E53.18541
G1 X133.582 Y83.953 E53.20078
G1 X133.256 Y83.818 E53.21721
G1 X132.838 Y83.74 E53.23701
G1 X77.292 Y83.74 E55.82346
G1 X76.904 Y83.777 E55.84161
G1 X76.581 Y83.876 E55.85734
G1 X76.277 Y84.038 E55.87338
G1 X76.008 Y84.259 E55.88959
G1 X75.785 Y84.528 E55.90586
G1 X75.625 Y84.827 E55.92165
G1 X75.489 Y85.402 E55.94917
G1 X75.488 Y100.453 E56.65
G1 X75.528 Y100.841 E56.66817
G1 X75.626 Y101.171 E56.6842
G1 X75.785 Y101.468 E56.69988
G1 X76.007 Y101.737 E56.71612
G1 X76.279 Y101.96 E56.7325
G1 X76.582 Y102.124 E56.74854
G1 X77.15 Y102.26 E56.77574
G1 X132.835 Y102.26 E59.36867
G1 X133.254 Y102.179 E59.38854
M204 S3000
M205 X10 Y10
G0 F3000 X133.415 Y102.718
M204 S1800
M205 X8 Y8
;TYPE:WALL-OUTER
G1 F1500 X133.946 Y102.5 E59.41527
G1 X134.388 Y102.137 E59.4419
G1 X134.678 Y101.783 E59.46321
G1 X134.891 Y101.384 E59.48427
G1 X135.021 Y100.951 E59.50532
G1 X135.068 Y100.635 E59.5202
G1 X135.068 Y85.335 E60.23263
G1 X134.97 Y84.834 E60.2564
G1 X134.788 Y84.397 E60.27844
G1 X134.546 Y84.035 E60.29872
G1 X134.213 Y83.702 E60.32065
G1 X133.847 Y83.457 E60.34115
G1 X133.416 Y83.278 E60.36289
G1 X132.89 Y83.18 E60.3878
G1 X77.266 Y83.18 E62.97789
G1 X76.795 Y83.225 E62.99992
G1 X76.365 Y83.356 E63.02085
G1 X75.965 Y83.57 E63.04197
G1 X75.611 Y83.86 E63.06328
G1 X75.318 Y84.214 E63.08468
G1 X75.105 Y84.612 E63.1057
G1 X74.975 Y85.045 E63.12675
G1 X74.929 Y85.361 E63.14162
G1 X74.928 Y100.481 E63.84567
G1 X74.976 Y100.949 E63.86758
G1 X75.105 Y101.385 E63.88875
G1 X75.318 Y101.782 E63.90973
G1 X75.611 Y102.136 E63.93112
G1 X75.965 Y102.426 E63.95243
G1 X76.365 Y102.644 E63.97365
G1 X77.109 Y102.82 E64.00925
G1 X132.889 Y102.82 E66.6066
G1 X133.415 Y102.718 E66.63154
M204 S3000
M205 X10 Y10
G0 F3000 X133.6 Y102.643
G0 X133.36 Y102.062
G0 X132.716 Y101.16
M204 S1800
M205 X8 Y8
;TYPE:SKIN
G1 F1200 X77.247 Y101.16 E69.21441
G1 X77.012 Y101.1 E69.22571
G1 X76.786 Y100.949 E69.23836
G1 X76.65 Y100.748 E69.24966
G1 X76.588 Y100.395 E69.26635
G1 X76.588 Y85.495 E69.96016
G1 X76.697 Y85.157 E69.9767
G1 X76.895 Y84.958 E69.98977
G1 X77.18 Y84.84 E70.00413
G1 X132.726 Y84.84 E72.59059
G1 X133.059 Y84.93 E72.60665
G1 X133.249 Y85.091 E72.61824
G1 X133.373 Y85.332 E72.63086
G1 X133.408 Y85.494 E72.63858
G1 X133.408 Y100.498 E73.33723
G1 X133.347 Y100.74 E73.34885
G1 X133.09 Y101.051 E73.36764
G1 X132.716 Y101.16 E73.38578
M204 S3000
M205 X10 Y10
G0 F3000 X133.128 Y85.611
M204 S1800
M205 X8 Y8
G1 F1200 X132.638 Y85.12 E73.41808
M204 S3000
M205 X10 Y10
G0 F3000 X131.846 Y85.12
M204 S1800
M205 X8 Y8
G1 F1200 X133.128 Y86.403 E73.50253
M204 S3000
M205 X10 Y10
G0 F3000 X133.128 Y87.195
M204 S1800
M205 X8 Y8
G1 F1200 X131.054 Y85.12 E73.63914
M204 S3000
M205 X10 Y10
G0 F3000 X130.262 Y85.12
M204 S1800
M205 X8 Y8
G1 F1200 X133.128 Y87.987 E73.82791
M204 S3000
M205 X10 Y10
G0 F3000 X133.128 Y88.779
M204 S1800
M205 X8 Y8
G1 F1200 X129.47 Y85.12 E74.06882
M204 S3000
M205 X10 Y10
G0 F3000 X128.678 Y85.12
M204 S1800
M205 X8 Y8
G1 F1200 X133.128 Y89.571 E74.3619
M204 S3000
M205 X10 Y10
G0 F3000 X133.128 Y90.363
M204 S1800
M205 X8 Y8
G1 F1200 X127.886 Y85.12 E74.70713
M204 S3000
M205 X10 Y10
G0 F3000 X127.094 Y85.12
M204 S1800
M205 X8 Y8
G1 F1200 X133.128 Y91.155 E75.10451
M204 S3000
M205 X10 Y10
G0 F3000 X133.128 Y91.947
M204 S1800
M205 X8 Y8
G1 F1200 X126.302 Y85.12 E75.55404
M204 S3000
M205 X10 Y10
G0 F3000 X125.51 Y85.12
M204 S1800
M205 X8 Y8
G1 F1200 X133.128 Y92.738 E76.0557
M204 S3000
M205 X10 Y10
G0 F3000 X133.128 Y93.53
M204 S1800
M205 X8 Y8
G1 F1200 X124.718 Y85.12 E76.60952
M204 S3000
M205 X10 Y10
G0 F3000 X123.926 Y85.12
M204 S1800
M205 X8 Y8
G1 F1200 X133.128 Y94.322 E77.21548
M204 S3000
M205 X10 Y10
G0 F3000 X133.128 Y95.114
M204 S1800
M205 X8 Y8
G1 F1200 X123.134 Y85.12 E77.8736
M204 S3000
M205 X10 Y10
G0 F3000 X122.342 Y85.12
M204 S1800
M205 X8 Y8
G1 F1200 X133.128 Y95.906 E78.58388
M204 S3000
M205 X10 Y10
G0 F3000 X133.128 Y96.698
M204 S1800
M205 X8 Y8
G1 F1200 X121.55 Y85.12 E79.34631
M204 S3000
M205 X10 Y10
G0 F3000 X120.758 Y85.12
M204 S1800
M205 X8 Y8
G1 F1200 X133.128 Y97.49 E80.1609
M204 S3000
M205 X10 Y10
G0 F3000 X133.128 Y98.282
M204 S1800
M205 X8 Y8
G1 F1200 X119.966 Y85.12 E81.02764
M204 S3000
M205 X10 Y10
G0 F3000 X119.174 Y85.12
M204 S1800
M205 X8 Y8
G1 F1200 X133.128 Y99.074 E81.94653
M204 S3000
M205 X10 Y10
